X:1
T:River Flows In You
T:Composed by Lee Ru Ma ( Yiruma )
T:Copyright By Musescore Music © and Pianist_Rigo  for sharing it
%%score { 1 | 2 }
L:1/8
Q:1/4=65
M:4/4
K:A
V:1 treble nm="Grand Piano" snm="G . Pna."
V:2 bass 
V:1
!mp! agag aead- ||[M:3/4] d4- dA/c/ |:[M:4/4] agag aead- ||[M:3/4] d4- dA/c/ || %4
[K:A][M:4/4][Q:1/4=70] ag/a/- a/A/g/a/- a/A/e/a/- a/A/d/A/ |{/B} cd[Ae]c [GB]3 A/G/ | %6
 A2- A/E/A/B/ c3 c/d/ | e3 d/c/ B4 |{Ac} ag/a/- a/A/g/a/- a/A/e/a/- a/A/d/A/ | %9
{/B} cdec' be{bc'} ba/g/ | [ea]3 A/B/ cE Ac/d/ | eE cd/c/ B2[Q:1/4=74] a/b/a/g/ | %12
 a/A/e/A/ a/b/a/g/ a/A/e/A/ a/b/a/g/ | a/b/c'/d'/ e'/c'/b/a/ gB a/b/a/g/ | %14
 a/A/e/A/ a/b/a/g/ a/A/e/A/ a/b/a/g/ | a/b/c'/d'/ e'/c'/b/a/ gB a/a/4b/4a/g/ | %16
 a/A/e/A/ a/>b/a/g/ a/A/e/A/ a/>b/a/g/ | a/b/c'/d'/ e'/c'/b/a/ gB a/>b/a/g/ | %18
 a/A/e/A/ a/>b/a/g/ a/A/e/A/ a/>b/a/g/ || %19
[M:5/4] a/b/c'/d'/ e'/c'/b/a/ gB G !fermata!E2[Q:1/4=70] A/c/ || %20
[M:4/4] ag/a/- a/A/g/a/- a/A/e/a/- a/A/d/A/ |{/B} cd[Ae]c [GB]3 A/G/ | %22
 [EA]2- [EA]/E/A/B/ c/E/A/B/ c/E/c/d/ | e/E/c/d/ e/E/d/c/ B/E/d/c/ BG | %24
{/A} ag/a/- a/A/g/a/- a/A/e/a/- a/A/d/A/ |{/B} cdec' be{bc'} ba/g/ | [ea]3 A/B/ c/E/A/B/ c/E/c/d/ | %27
 e/E/c/d/ e/E/d/c/ B/E/G/B/[Q:1/4=75] a/b/a/g/ |{/g} a/A/e/A/ a/a/4b/4a/g/ a/A/e/A/ a/a/4b/4a/g/ | %29
 a/b/c'/d'/ e'/c'/{bc'}b/a/ g/B/e/B/ a/a/4b/4a/g/ | %30
{/g} a/A/e/A/ a/a/4b/4a/g/ a/A/e/A/ a/a/4b/4a/g/ | %31
 a/b/c'/d'/ e'/c'/{bc'}b/a/ g/B/e/B/ a/a/4b/4a/g/ | a/A/e/A/ a/a/4b/4a/g/ a/A/e/A/ a/a/4b/4a/g/ | %33
 a/b/c'/d'/ e'/c'/b/a/ g/B/e/B/ a/a/4b/4a/g/ | a/A/e/A/ a/a/4b/4a/g/ a/A/e/A/ a/a/4b/4a/g/ | %35
 a/b/c'/d'/ e'/c'/b/a/!>(! gB[Q:1/4=68]GE!>)! |{AB} agag [ca]ead | cdec B2 AG | %38
 !arpeggio![CEA]2 EA/B/ cE Ac/d/ | eE cd/c/ B3 A/c/ | agag !arpeggio![cea]ead | %41
{/B} cdec' [eb]3 A/G/ | [EA]3 A/B/ cE Ac/d/ | eE cd/c/ B2 E2 | AA,CF !fermata!A4 |] %45
V:2
 F,C F2 D,A, E2- ||[M:3/4] E6 |:[M:4/4] F,C F2 D,A, E2- ||[M:3/4] E6 || %4
[K:A][M:4/4] F,C F2 D,A,ED, | A,,E, C2 G,B, E2 | F,C F2 D,A, E2 | A,,E, C2 E,B, G2 | %8
 F,C F2 D,A,ED, | A,,E,CA,, E,B, E2 | F,C F2 D,A, E2 | A,,E, C2 E,B, E2 | F,CFF, D,A,ED, | %13
 A,,E,CA,, E,B,EE, | F,CFF, D,A,ED, | A,,E,CA,, E,B,EE, | F,,C,F,F,, D,A,CD, | A,,E,CA,, E,B,EE, | %18
 F,,C,F,F,, D,A,CD, ||[M:5/4] A,,E,CA,,E,,B,, !fermata!G,4 ||[M:4/4] F,C F2 D,A,ED, | %21
 A,,E, C2 G,B, E2 | F, C3 D, E2 E | A,,E,CA,, E,B, E2 | F,CFF, D,A,ED, | A,,E,CA,, E,B,EE, | %26
 F,C F2 F,A,EF, | A,,E,CA,, E,,B,,G,E,, | F,,C,F,F,, D,A,ED, | A,,E,CA,, E,,B,,G,E,, | %30
 F,,C,F,F,, D,A,ED, | A,,E,CA,, E,,B,,G,E,, | F,,C,F,F,, D,A,ED, | A,,E,CA,, E,,B,,G,E,, | %34
 F,,C,F,F,, D,A,ED, | A,,E,CA,, E,,B,, G,2 | [F,C]4 D,A,ED, | E,C A2 [EG]4 | F,, C,3 D,A, E2 | %39
 A,,E, C2 E,B, G2 | F,C F2 D,A,ED, | A,,E, C2 E,B, G2 | F,,C, F,2 D,A, D2 | A,,E, C2 E,,B,, G,2 | %44
 F,,C, !fermata!F,6 |] %45

